src/assets/selectIcons/veleno_1.svg

<svg xmlns="http://www.w3.org/2000/svg" viewBox="0 0 512 512" style="height: 512px; width: 512px;"><path d="M0 0h512v512H0z" fill="#000" fill-opacity="1"></path><g class="" transform="translate(0,0)" style=""><path d="M433.814 68.664c-2.74.05-5.495.423-8.242 1.152-8.47 2.25-15.3 7.512-20.44 14.49C292.905 120.865 186.494 154.58 75.276 190.4c-39.714 12.79-64.6 51.163-53.006 86.784 11.597 35.62 54.342 52.277 94.035 39.277l-.002.002c109.41-35.827 214.424-69.036 325.12-104.656.56.212 1.13.39 1.694.58-2.62 2.935-4.226 6.796-4.226 11.04 0 9.164 7.43 16.593 16.594 16.593 9.165 0 16.596-7.43 16.596-16.593 0-4.32-1.664-8.24-4.367-11.192 12.75-4.865 21.353-16.866 25.535-30.898 4.547-15.257 4.504-33.654-.584-52.48-5.088-18.828-14.327-34.77-25.94-45.712-8.712-8.206-19.263-13.79-30.175-14.43-.91-.052-1.822-.07-2.736-.054zm.497 18.68c.455-.007.914.005 1.377.035 5.567.358 11.818 3.34 18.22 9.37 8.535 8.04 16.44 21.165 20.716 36.986 3.622 13.4 4 26.397 2.012 36.852h-52.783c-3.517-6.207-6.512-13.352-8.622-21.158-4.276-15.822-4.046-31.094-.716-42.266 3.33-11.172 9.122-17.497 15.855-19.285 1.262-.336 2.578-.517 3.94-.536zm-38.414 17.043c-3.815 14.734-3.516 32.133 1.29 49.92 1.544 5.707 3.472 11.143 5.728 16.26h-151.22c-64.405 20.742-125.856 40.507-163.35 52.59-23.24 7.486-35.353 27.407-30.406 42.593 4.946 15.188 26.582 24.333 49.75 16.75 66.89-21.89 199.01-64.39 302.822-97.803 3.76 5.807 7.998 10.967 12.62 15.323.066.06.135.118.2.18-104.876 33.753-241.66 77.74-309.83 100.05-30.827 10.09-64.424-1.334-73.344-28.72-8.92-27.385 11.603-56.22 42.438-66.155 68.055-21.93 208.2-66.996 313.302-100.988zm59.58 180.205c-16.948 63.255-40.507 54.472-40.507 91.5 0 22.36 18.146 40.508 40.507 40.508 22.36 0 40.507-18.147 40.507-40.508 0-39.97-23.256-27.12-40.507-91.5z" fill="#fff" fill-opacity="1"></path></g></svg>

<?xml version="1.0" encoding="UTF-8" standalone="no"?>
<!DOCTYPE svg PUBLIC "-//W3C//DTD SVG 1.1//EN" "http://www.w3.org/Graphics/SVG/1.1/DTD/svg11.dtd">
<svg width="100%" height="100%" viewBox="0 0 512 512" version="1.1" xmlns="http://www.w3.org/2000/svg" xmlns:xlink="http://www.w3.org/1999/xlink" xml:space="preserve" xmlns:serif="http://www.serif.com/" style="fill-rule:evenodd;clip-rule:evenodd;stroke-linejoin:round;stroke-miterlimit:2;">
    <rect x="0" y="0" width="512" height="512" style="fill-rule:nonzero;"/>
    <g>
        <path d="M433.814,68.664C431.074,68.714 428.319,69.087 425.572,69.816C417.102,72.066 410.272,77.328 405.132,84.306C292.905,120.865 186.494,154.58 75.276,190.4C35.562,203.19 10.676,241.563 22.27,277.184C33.867,312.804 76.612,329.461 116.305,316.461L116.303,316.463C225.713,280.636 330.727,247.427 441.423,211.807C441.983,212.019 442.553,212.197 443.117,212.387C440.497,215.322 438.891,219.183 438.891,223.427C438.891,232.591 446.321,240.02 455.485,240.02C464.65,240.02 472.081,232.59 472.081,223.427C472.081,219.107 470.417,215.187 467.714,212.235C480.464,207.37 489.067,195.369 493.249,181.337C497.796,166.08 497.753,147.683 492.665,128.857C487.577,110.029 478.338,94.087 466.725,83.145C458.013,74.939 447.462,69.355 436.55,68.715C435.64,68.663 434.728,68.645 433.814,68.661L433.814,68.664ZM434.311,87.344C434.766,87.337 435.225,87.349 435.688,87.379C441.255,87.737 447.506,90.719 453.908,96.749C462.443,104.789 470.348,117.914 474.624,133.735C478.246,147.135 478.624,160.132 476.636,170.587L423.853,170.587C420.336,164.38 417.341,157.235 415.231,149.429C410.955,133.607 411.185,118.335 414.515,107.163C417.845,95.991 423.637,89.666 430.37,87.878C431.632,87.542 432.948,87.361 434.31,87.342L434.311,87.344ZM395.897,104.387C392.082,119.121 392.381,136.52 397.187,154.307C398.731,160.014 400.659,165.45 402.915,170.567L251.695,170.567C187.29,191.309 125.839,211.074 88.345,223.157C65.105,230.643 52.992,250.564 57.939,265.75C62.885,280.938 84.521,290.083 107.689,282.5C174.579,260.61 306.699,218.11 410.511,184.697C414.271,190.504 418.509,195.664 423.131,200.02C423.197,200.08 423.266,200.138 423.331,200.2C318.455,233.953 181.671,277.94 113.501,300.25C82.674,310.34 49.077,298.916 40.157,271.53C31.237,244.145 51.76,215.31 82.595,205.375C150.65,183.445 290.795,138.379 395.897,104.387Z" style="fill:rgb(142,198,225);fill-rule:nonzero;"/>
        <path d="M455.477,284.592C472.728,348.972 495.984,336.122 495.984,376.092C495.984,398.453 477.837,416.6 455.477,416.6C433.116,416.6 414.97,398.452 414.97,376.092C414.97,339.064 438.529,347.847 455.477,284.592Z" style="fill:rgb(92,198,120);"/>
    </g>
</svg>
